;Generated with Cura_SteamEngine 15.01
; Default start code
G28 ; Home extruder
G1 Z15 F100
M107 ; Turn off fan
G90 ; Absolute positioning
M82 ; Extruder in absolute mode
M190 S50
; Activate all used extruder
M104 T0 S210
G92 E0 ; Reset extruder position
; Wait for all used extruders to reach temperature
M109 T0 S210
;Layer count: 85
;LAYER:0
M107
G0 F9000 X78.732 Y30.141 Z0.300
;TYPE:SKIRT
G1 F1800 X79.120 Y29.291 E0.04662
G1 X79.800 Y28.533 E0.09742
G1 X80.591 Y28.010 E0.14473
G1 X81.812 Y27.640 E0.20838
G1 X83.117 Y27.787 E0.27390
G1 X85.753 Y29.012 E0.41892
G1 X92.790 Y32.294 E0.80630
G1 X95.137 Y33.388 E0.93549
G1 X97.494 Y34.487 E1.06523
G1 X98.235 Y34.840 E1.10618
G1 X99.195 Y35.751 E1.17221
G1 X99.682 Y36.931 E1.23590
G1 X99.786 Y37.828 E1.28095
G1 X99.654 Y38.868 E1.33325
G1 X98.136 Y41.922 E1.50340
G1 X96.877 Y44.444 E1.64403
G1 X95.618 Y46.961 E1.78444
G1 X93.105 Y51.993 E2.06505
G1 X89.330 Y59.544 E2.48622
G1 X88.074 Y62.061 E2.62656
G1 X86.815 Y64.578 E2.76697
G1 X86.585 Y65.040 E2.79272
G1 X84.299 Y69.611 E3.04770
G1 X83.042 Y72.129 E3.18810
G1 X82.782 Y72.648 E3.21706
G1 X81.785 Y74.646 E3.32846
G1 X81.515 Y75.185 E3.35854
G1 X80.527 Y77.163 E3.46885
G1 X80.245 Y77.725 E3.50022
G1 X79.269 Y79.680 E3.60923
G1 X78.975 Y80.267 E3.64199
G1 X78.012 Y82.197 E3.74960
G1 X77.704 Y82.810 E3.78382
G1 X76.755 Y84.712 E3.88987
G1 X74.237 Y89.749 E4.17082
G1 X73.910 Y90.402 E4.20725
G1 X72.982 Y92.263 E4.31100
G1 X72.640 Y92.946 E4.34911
G1 X71.723 Y94.781 E4.45145
G1 X71.368 Y95.490 E4.49101
G1 X70.466 Y97.298 E4.59181
G1 X70.098 Y98.033 E4.63282
G1 X69.207 Y99.815 E4.73222
G1 X68.836 Y100.555 E4.77352
G1 X67.950 Y102.331 E4.87254
G1 X67.572 Y103.087 E4.91471
G1 X65.435 Y107.365 E5.15328
G1 X65.033 Y108.169 E5.19813
G1 X64.178 Y109.881 E5.29360
G1 X62.493 Y113.252 E5.48162
G1 X61.662 Y114.915 E5.57437
G1 X61.230 Y115.779 E5.62256
G1 X60.405 Y117.431 E5.71469
G1 X59.965 Y118.310 E5.76373
G1 X59.147 Y119.949 E5.85512
G1 X57.889 Y122.465 E5.99546
G1 X56.631 Y124.982 E6.13584
G1 X56.155 Y125.935 E6.18899
G1 X55.375 Y127.498 E6.27614
G1 X54.886 Y128.477 E6.33073
G1 X52.357 Y133.535 E6.61286
G1 X51.600 Y135.050 E6.69736
G1 X51.087 Y136.076 E6.75459
G1 X50.344 Y137.566 E6.83765
G1 X49.818 Y138.617 E6.89629
G1 X49.086 Y140.084 E6.97808
G1 X48.549 Y141.157 E7.03794
G1 X47.827 Y142.602 E7.11853
G1 X47.283 Y143.687 E7.17909
G1 X46.571 Y145.117 E7.25878
G1 X46.015 Y146.228 E7.32076
G1 X45.312 Y147.635 E7.39923
G1 X44.752 Y148.754 E7.46166
G1 X44.056 Y150.149 E7.53944
G1 X42.797 Y152.669 E7.67998
G1 X42.209 Y153.842 E7.74544
G1 X41.540 Y155.183 E7.82021
G1 X40.941 Y156.382 E7.88708
G1 X39.677 Y158.910 E8.02809
G1 X39.025 Y160.218 E8.10100
G1 X38.410 Y161.448 E8.16961
G1 X37.767 Y162.736 E8.24143
G1 X37.142 Y163.984 E8.31106
G1 X36.509 Y165.251 E8.38172
G1 X36.508 Y165.251 E8.38177
G1 X35.216 Y167.847 E8.52644
G1 X34.859 Y168.464 E8.56201
G1 X34.448 Y169.156 E8.60216
G1 X33.369 Y170.338 E8.68201
G1 X32.073 Y171.281 E8.76197
G1 X30.613 Y171.940 E8.84189
G1 X29.050 Y172.296 E8.92186
G1 X28.232 Y172.310 E8.96268
G1 X27.456 Y172.328 E9.00140
G1 X26.637 Y172.176 E9.04296
G1 X25.878 Y172.035 E9.08147
G1 X25.111 Y171.725 E9.12275
G1 X24.393 Y171.433 E9.16142
G1 X23.707 Y170.976 E9.20254
G1 X23.062 Y170.546 E9.24122
G1 X21.936 Y169.407 E9.32112
G1 X21.063 Y168.067 E9.40091
G1 X20.477 Y166.576 E9.48084
G1 X20.204 Y165.000 E9.56063
G1 X20.248 Y163.533 E9.63386
G1 X20.381 Y162.657 E9.67806
G1 X20.881 Y161.522 E9.73994
G1 X21.676 Y159.726 E9.83792
G1 X22.227 Y158.472 E9.90626
G1 X22.795 Y157.184 E9.97649
G1 X23.361 Y155.899 E10.04654
G1 X23.917 Y154.637 E10.11534
G1 X24.493 Y153.327 E10.18674
G1 X25.040 Y152.088 E10.25431
G1 X25.619 Y150.769 E10.32617
G1 X26.159 Y149.545 E10.39292
G1 X26.158 Y149.545 E10.39297
G1 X26.751 Y148.196 E10.46649
G1 X27.282 Y146.993 E10.53209
G1 X27.879 Y145.636 E10.60605
G1 X28.403 Y144.449 E10.67079
G1 X29.011 Y143.064 E10.74625
G1 X29.525 Y141.900 E10.80973
G1 X30.145 Y140.492 E10.88649
G1 X30.647 Y139.352 E10.94863
G1 X31.276 Y137.921 E11.02662
G1 X31.768 Y136.805 E11.08746
G1 X32.402 Y135.363 E11.16605
G1 X32.888 Y134.262 E11.22609
G1 X32.887 Y134.262 E11.22614
G1 X33.530 Y132.799 E11.30587
G1 X34.012 Y131.708 E11.36538
G1 X34.662 Y130.229 E11.44598
G1 X35.131 Y129.164 E11.50403
G1 X35.796 Y127.655 E11.58630
G1 X36.254 Y126.616 E11.64295
G1 X36.928 Y125.084 E11.72646
G1 X37.377 Y124.067 E11.78192
G1 X38.060 Y122.513 E11.86661
G1 X38.497 Y121.522 E11.92064
G1 X39.185 Y119.956 E12.00598
G1 X39.618 Y118.974 E12.05952
G1 X40.314 Y117.392 E12.14575
G1 X40.740 Y116.428 E12.19833
G1 X40.739 Y116.428 E12.19838
G1 X41.447 Y114.819 E12.28608
G1 X41.863 Y113.877 E12.33745
G1 X41.864 Y113.877 E12.33750
G1 X42.580 Y112.248 E12.42628
G1 X42.985 Y111.330 E12.47634
G1 X43.711 Y109.677 E12.56641
G1 X44.105 Y108.785 E12.61506
G1 X44.845 Y107.103 E12.70674
G1 X45.228 Y106.236 E12.75402
G1 X45.965 Y104.558 E12.84546
G1 X46.348 Y103.690 E12.89279
G1 X47.098 Y101.984 E12.98577
G1 X47.472 Y101.140 E13.03182
G1 X48.230 Y99.414 E13.12587
G1 X49.364 Y96.840 E13.26620
G1 X49.713 Y96.048 E13.30938
G1 X49.714 Y96.048 E13.30943
G1 X50.496 Y94.268 E13.40642
G1 X50.836 Y93.498 E13.44842
G1 X50.837 Y93.498 E13.44847
G1 X51.628 Y91.698 E13.54656
G1 X51.956 Y90.955 E13.58708
G1 X52.749 Y89.150 E13.68544
G1 X53.077 Y88.407 E13.72596
G1 X53.882 Y86.576 E13.82574
G1 X54.200 Y85.856 E13.86501
G1 X54.201 Y85.856 E13.86506
G1 X55.015 Y84.004 E13.96599
G1 X55.322 Y83.309 E14.00390
G1 X56.148 Y81.432 E14.10621
G1 X56.444 Y80.762 E14.14275
G1 X57.280 Y78.861 E14.24636
G1 X57.565 Y78.215 E14.28158
G1 X58.410 Y76.293 E14.38633
G1 X58.687 Y75.667 E14.42048
G1 X58.688 Y75.667 E14.42053
G1 X59.534 Y73.742 E14.52544
G1 X59.808 Y73.121 E14.55930
G1 X60.666 Y71.168 E14.66572
G1 X60.931 Y70.570 E14.69836
G1 X61.798 Y68.597 E14.80587
G1 X62.050 Y68.026 E14.83701
G1 X62.932 Y66.023 E14.94620
G1 X63.174 Y65.476 E14.97604
G1 X64.064 Y63.451 E15.08640
G1 X64.296 Y62.927 E15.11499
G1 X64.297 Y62.927 E15.11504
G1 X65.194 Y60.886 E15.22626
G1 X65.416 Y60.383 E15.25369
G1 X65.417 Y60.383 E15.25374
G1 X66.317 Y58.335 E15.36535
G1 X67.451 Y55.760 E15.50572
G1 X67.660 Y55.287 E15.53152
G1 X69.714 Y50.619 E15.78596
G1 X73.101 Y42.928 E16.20522
G1 X74.233 Y40.355 E16.34546
G1 X78.732 Y30.141 E16.90229
G0 F9000 X145.417 Y60.383
G1 F1800 X146.317 Y58.335 E17.01389
G1 X147.451 Y55.760 E17.15427
G1 X147.660 Y55.287 E17.18006
G1 X149.714 Y50.619 E17.43450
G1 X153.101 Y42.928 E17.85377
G1 X154.233 Y40.355 E17.99401
G1 X158.732 Y30.141 E18.55083
G1 X159.120 Y29.291 E18.59745
G1 X159.800 Y28.533 E18.64825
G1 X160.591 Y28.010 E18.69556
G1 X161.812 Y27.640 E18.75921
G1 X163.117 Y27.787 E18.82473
G1 X165.753 Y29.012 E18.96975
G1 X172.790 Y32.294 E19.35713
G1 X175.137 Y33.388 E19.48632
G1 X177.494 Y34.487 E19.61606
G1 X178.235 Y34.840 E19.65701
G1 X179.195 Y35.751 E19.72304
G1 X179.682 Y36.931 E19.78673
G1 X179.786 Y37.828 E19.83178
G1 X179.654 Y38.868 E19.88408
G1 X178.136 Y41.922 E20.05423
G1 X176.877 Y44.444 E20.19486
G1 X175.618 Y46.961 E20.33527
G1 X173.105 Y51.993 E20.61588
G1 X169.330 Y59.544 E21.03705
G1 X168.074 Y62.061 E21.17739
G1 X166.815 Y64.578 E21.31780
G1 X166.585 Y65.040 E21.34355
G1 X164.299 Y69.611 E21.59853
G1 X163.042 Y72.129 E21.73893
G1 X162.782 Y72.648 E21.76789
G1 X161.785 Y74.646 E21.87929
G1 X161.515 Y75.185 E21.90937
G1 X160.527 Y77.163 E22.01968
G1 X160.245 Y77.725 E22.05105
G1 X159.269 Y79.680 E22.16006
G1 X158.975 Y80.267 E22.19282
G1 X158.012 Y82.197 E22.30043
G1 X157.704 Y82.810 E22.33465
G1 X156.755 Y84.712 E22.44070
G1 X154.237 Y89.749 E22.72165
G1 X153.910 Y90.402 E22.75808
G1 X152.982 Y92.263 E22.86183
G1 X152.640 Y92.946 E22.89994
G1 X151.723 Y94.781 E23.00228
G1 X151.368 Y95.490 E23.04184
G1 X150.466 Y97.298 E23.14264
G1 X150.098 Y98.033 E23.18365
G1 X149.207 Y99.815 E23.28305
G1 X148.836 Y100.555 E23.32435
G1 X147.950 Y102.331 E23.42337
G1 X147.572 Y103.087 E23.46554
G1 X145.435 Y107.365 E23.70411
G1 X145.033 Y108.169 E23.74896
G1 X144.178 Y109.881 E23.84443
G1 X142.493 Y113.252 E24.03245
G1 X141.662 Y114.915 E24.12520
G1 X141.230 Y115.779 E24.17339
G1 X140.405 Y117.431 E24.26552
G1 X139.965 Y118.310 E24.31456
G1 X139.147 Y119.949 E24.40595
G1 X137.889 Y122.465 E24.54629
G1 X136.631 Y124.982 E24.68667
G1 X136.155 Y125.935 E24.73982
G1 X135.375 Y127.498 E24.82697
G1 X134.886 Y128.477 E24.88156
G1 X132.357 Y133.535 E25.16369
G1 X131.600 Y135.050 E25.24819
G1 X131.087 Y136.076 E25.30542
G1 X130.344 Y137.566 E25.38848
G1 X129.818 Y138.617 E25.44712
G1 X129.086 Y140.084 E25.52891
G1 X128.549 Y141.157 E25.58877
G1 X127.827 Y142.602 E25.66936
G1 X127.283 Y143.687 E25.72992
G1 X126.571 Y145.117 E25.80961
G1 X126.015 Y146.228 E25.87159
G1 X125.312 Y147.635 E25.95006
G1 X124.752 Y148.754 E26.01249
G1 X124.056 Y150.149 E26.09027
G1 X122.797 Y152.669 E26.23081
G1 X122.209 Y153.842 E26.29627
G1 X121.540 Y155.183 E26.37104
G1 X120.941 Y156.382 E26.43791
G1 X119.677 Y158.910 E26.57892
G1 X119.025 Y160.218 E26.65183
G1 X118.410 Y161.448 E26.72044
G1 X117.767 Y162.736 E26.79226
G1 X117.142 Y163.984 E26.86189
G1 X116.509 Y165.251 E26.93255
G1 X116.508 Y165.251 E26.93260
G1 X115.216 Y167.847 E27.07727
G1 X114.859 Y168.464 E27.11284
G1 X114.448 Y169.156 E27.15299
G1 X113.369 Y170.338 E27.23284
G1 X112.073 Y171.281 E27.31280
G1 X110.613 Y171.940 E27.39272
G1 X109.050 Y172.296 E27.47269
G1 X108.232 Y172.310 E27.51351
G1 X107.456 Y172.328 E27.55223
G1 X106.637 Y172.176 E27.59379
G1 X105.878 Y172.035 E27.63230
G1 X105.111 Y171.725 E27.67358
G1 X104.393 Y171.433 E27.71225
G1 X103.707 Y170.976 E27.75337
G1 X103.062 Y170.546 E27.79205
G1 X101.936 Y169.407 E27.87195
G1 X101.063 Y168.067 E27.95174
G1 X100.477 Y166.576 E28.03167
G1 X100.204 Y165.000 E28.11146
G1 X100.248 Y163.533 E28.18469
G1 X100.381 Y162.657 E28.22889
G1 X100.881 Y161.522 E28.29077
G1 X101.676 Y159.726 E28.38875
G1 X102.227 Y158.472 E28.45709
G1 X102.795 Y157.184 E28.52732
G1 X103.361 Y155.899 E28.59737
G1 X103.917 Y154.637 E28.66617
G1 X104.493 Y153.327 E28.73757
G1 X105.040 Y152.088 E28.80514
G1 X105.619 Y150.769 E28.87700
G1 X106.159 Y149.545 E28.94375
G1 X106.158 Y149.545 E28.94380
G1 X106.751 Y148.196 E29.01732
G1 X107.282 Y146.993 E29.08292
G1 X107.879 Y145.636 E29.15688
G1 X108.403 Y144.449 E29.22162
G1 X109.011 Y143.064 E29.29708
G1 X109.525 Y141.900 E29.36056
G1 X110.145 Y140.492 E29.43732
G1 X110.647 Y139.352 E29.49946
G1 X111.276 Y137.921 E29.57745
G1 X111.768 Y136.805 E29.63829
G1 X112.402 Y135.363 E29.71688
G1 X112.888 Y134.262 E29.77692
G1 X112.887 Y134.262 E29.77697
G1 X113.530 Y132.799 E29.85670
G1 X114.012 Y131.708 E29.91621
G1 X114.662 Y130.229 E29.99681
G1 X115.131 Y129.164 E30.05486
G1 X115.796 Y127.655 E30.13713
G1 X116.254 Y126.616 E30.19378
G1 X116.928 Y125.084 E30.27729
G1 X117.377 Y124.067 E30.33275
G1 X118.060 Y122.513 E30.41744
G1 X118.497 Y121.522 E30.47147
G1 X119.185 Y119.956 E30.55681
G1 X119.618 Y118.974 E30.61035
G1 X120.314 Y117.392 E30.69658
G1 X120.740 Y116.428 E30.74916
G1 X120.739 Y116.428 E30.74921
G1 X121.447 Y114.819 E30.83691
G1 X121.863 Y113.877 E30.88828
G1 X121.864 Y113.877 E30.88833
G1 X122.580 Y112.248 E30.97711
G1 X122.985 Y111.330 E31.02717
G1 X123.711 Y109.677 E31.11724
G1 X124.105 Y108.785 E31.16589
G1 X124.845 Y107.103 E31.25757
G1 X125.228 Y106.236 E31.30485
G1 X125.965 Y104.558 E31.39629
G1 X126.348 Y103.690 E31.44362
G1 X127.098 Y101.984 E31.53660
G1 X127.472 Y101.140 E31.58265
G1 X128.230 Y99.414 E31.67670
G1 X129.364 Y96.840 E31.81703
G1 X129.713 Y96.048 E31.86021
G1 X129.714 Y96.048 E31.86026
G1 X130.496 Y94.268 E31.95725
G1 X130.836 Y93.498 E31.99925
G1 X130.837 Y93.498 E31.99930
G1 X131.628 Y91.698 E32.09739
G1 X131.956 Y90.955 E32.13791
G1 X132.749 Y89.150 E32.23627
G1 X133.077 Y88.407 E32.27679
G1 X133.882 Y86.576 E32.37657
G1 X134.200 Y85.856 E32.41584
G1 X134.201 Y85.856 E32.41589
G1 X135.015 Y84.004 E32.51682
G1 X135.322 Y83.309 E32.55473
G1 X136.148 Y81.432 E32.65704
G1 X136.444 Y80.762 E32.69358
G1 X137.280 Y78.861 E32.79719
G1 X137.565 Y78.215 E32.83241
G1 X138.410 Y76.293 E32.93716
G1 X138.687 Y75.667 E32.97131
G1 X138.688 Y75.667 E32.97136
G1 X139.534 Y73.742 E33.07627
G1 X139.808 Y73.121 E33.11013
G1 X140.666 Y71.168 E33.21655
G1 X140.931 Y70.570 E33.24919
G1 X141.798 Y68.597 E33.35670
G1 X142.050 Y68.026 E33.38784
G1 X142.932 Y66.023 E33.49703
G1 X143.174 Y65.476 E33.52687
G1 X144.064 Y63.451 E33.63723
G1 X144.296 Y62.927 E33.66582
G1 X144.297 Y62.927 E33.66587
G1 X145.194 Y60.886 E33.77709
G1 X145.416 Y60.383 E33.80452
G1 X145.417 Y60.383 E33.80457
G1 F2400 E29.80457
G0 F9000 X95.872 Y37.924
;TYPE:WALL-INNER
G1 F2400 E33.80457
G1 F1800 X94.735 Y40.227 E33.93271
G1 X74.613 Y80.497 E36.17864
G1 X74.307 Y81.106 E36.21264
G1 X70.839 Y88.048 E36.59979
G1 X70.509 Y88.706 E36.63652
G1 X67.067 Y95.599 E37.02090
G1 X65.438 Y98.854 E37.20249
G1 X34.368 Y161.037 E40.67052
G1 X33.109 Y163.553 E40.81088
G1 X31.869 Y166.043 E40.94966
G1 X31.582 Y166.540 E40.97829
G1 X31.380 Y166.880 E40.99802
G1 X30.820 Y167.493 E41.03944
G1 X30.154 Y167.978 E41.08055
G1 X29.397 Y168.320 E41.12199
G1 X28.590 Y168.503 E41.16327
G1 X27.761 Y168.520 E41.20464
G1 X26.947 Y168.369 E41.24594
G1 X26.180 Y168.057 E41.28726
G1 X25.493 Y167.600 E41.32842
G1 X24.910 Y167.010 E41.36980
G1 X24.457 Y166.314 E41.41123
G1 X24.154 Y165.545 E41.45247
G1 X24.014 Y164.733 E41.49358
G1 X24.040 Y163.872 E41.53655
G1 X24.062 Y163.726 E41.54392
G1 X24.357 Y163.058 E41.58035
G1 X25.151 Y161.264 E41.67823
G1 X27.970 Y154.859 E42.02735
G1 X28.516 Y153.623 E42.09477
G1 X30.229 Y149.728 E42.30705
G1 X82.198 Y31.699 E48.74108
G1 X82.254 Y31.576 E48.74782
G1 X84.149 Y32.457 E48.85208
G1 X95.872 Y37.924 E49.49741
G0 F9000 X89.759 Y39.132
G1 F1800 X89.324 Y38.340 E49.54249
G1 X88.705 Y37.682 E49.58756
G1 X87.942 Y37.198 E49.63264
G1 X87.082 Y36.919 E49.67775
G1 X86.181 Y36.862 E49.72279
G1 X85.293 Y37.032 E49.76790
G1 X84.476 Y37.418 E49.81298
G1 X83.780 Y37.993 E49.85802
G1 X83.249 Y38.725 E49.90313
G1 X82.916 Y39.565 E49.94822
G1 X82.803 Y40.461 E49.99327
G1 X82.916 Y41.358 E50.03838
G1 X83.250 Y42.198 E50.08348
G1 X83.781 Y42.928 E50.12851
G1 X84.477 Y43.504 E50.17358
G1 X85.295 Y43.888 E50.21867
G1 X86.183 Y44.058 E50.26377
G1 X87.085 Y44.001 E50.30886
G1 X87.944 Y43.721 E50.35394
G1 X88.706 Y43.237 E50.39898
G1 X89.325 Y42.579 E50.44405
G1 X89.761 Y41.786 E50.48920
G1 X89.981 Y40.920 E50.53377
G1 X89.985 Y40.815 E50.53902
G1 X89.984 Y40.007 E50.57933
G1 X89.759 Y39.132 E50.62440
G0 F9000 X89.979 Y40.920
G0 X89.323 Y42.577
G0 X69.837 Y81.701
G1 F1800 X69.119 Y81.560 E50.66091
G1 X68.389 Y81.595 E50.69737
G1 X67.688 Y81.804 E50.73386
G1 X67.056 Y82.173 E50.77037
G1 X66.540 Y82.677 E50.80636
G1 X66.308 Y83.017 E50.82689
G1 X65.305 Y84.245 E50.90600
G1 X64.742 Y84.930 E50.95023
G1 X63.157 Y86.871 E51.07526
G1 X56.335 Y95.211 E51.61281
G1 X53.689 Y98.450 E51.82147
G1 X53.470 Y98.629 E51.83558
G1 X53.051 Y99.139 E51.86851
G1 X52.766 Y99.752 E51.90224
G1 X52.643 Y100.416 E51.93593
G1 X52.687 Y101.088 E51.96953
G1 X52.899 Y101.731 E52.00331
G1 X53.264 Y102.299 E52.03699
G1 X53.756 Y102.759 E52.07059
G1 X54.351 Y103.083 E52.10439
G1 X54.979 Y103.242 E52.13671
G1 X56.379 Y103.363 E52.20682
G1 X57.365 Y103.451 E52.25621
G1 X59.643 Y103.648 E52.37028
G1 X59.715 Y103.653 E52.37388
G1 X60.412 Y103.620 E52.40869
G1 X61.125 Y103.408 E52.44581
G1 X61.763 Y103.034 E52.48270
G1 X62.294 Y102.517 E52.51968
G1 X62.655 Y101.937 E52.55376
G1 X63.437 Y100.522 E52.63442
G1 X63.962 Y99.592 E52.68770
G1 X64.856 Y97.995 E52.77901
G1 X65.225 Y97.339 E52.81656
