;Generated with Cura_SteamEngine 15.01
; Default start code
G28 ; Home extruder
G1 Z15 F100
M107 ; Turn off fan
G90 ; Absolute positioning
M82 ; Extruder in absolute mode
M190 S50
; Activate all used extruder
M104 T0 S210
G92 E0 ; Reset extruder position
; Wait for all used extruders to reach temperature
M109 T0 S210
;Layer count: 85
;LAYER:0
M107
G0 F9000 X135.056 Y49.861 Z0.300
;TYPE:SKIRT
G1 F1800 X135.488 Y48.946 E0.05048
G1 X135.890 Y48.359 E0.08598
G1 X136.579 Y47.624 E0.13624
G1 X137.485 Y46.998 E0.19118
G1 X138.414 Y46.611 E0.24139
G1 X139.018 Y46.463 E0.27241
G1 X139.555 Y46.388 E0.29946
G1 X140.108 Y46.370 E0.32707
G1 X140.653 Y46.411 E0.35433
G1 X141.188 Y46.506 E0.38144
G1 X141.802 Y46.685 E0.41335
G1 X142.719 Y47.120 E0.46399
G1 X143.510 Y47.725 E0.51367
G1 X143.948 Y48.177 E0.54507
G1 X144.286 Y48.615 E0.57267
G1 X144.577 Y49.084 E0.60021
G1 X144.813 Y49.580 E0.62761
G1 X144.995 Y50.087 E0.65449
G1 X145.123 Y50.613 E0.68150
G1 X145.198 Y51.149 E0.70850
G1 X145.216 Y51.702 E0.73610
G1 X145.175 Y52.247 E0.76337
G1 X145.079 Y52.784 E0.79058
G1 X144.924 Y53.314 E0.81813
G1 X144.717 Y53.819 E0.84536
G1 X144.455 Y54.307 E0.87300
G1 X144.100 Y54.822 E0.90420
G1 X143.880 Y55.058 E0.92030
G1 X144.036 Y55.069 E0.92810
G1 X144.577 Y55.167 E0.95553
G1 X145.101 Y55.320 E0.98277
G1 X145.608 Y55.528 E1.01011
G1 X146.091 Y55.787 E1.03745
G1 X146.544 Y56.098 E1.06486
G1 X147.022 Y56.504 E1.09615
G1 X147.622 Y57.200 E1.14200
G1 X147.955 Y57.737 E1.17352
G1 X148.194 Y58.232 E1.20094
G1 X148.378 Y58.746 E1.22818
G1 X148.506 Y59.272 E1.25519
G1 X148.579 Y59.794 E1.28148
G1 X148.599 Y60.356 E1.30954
G1 X148.551 Y60.996 E1.34156
G1 X148.338 Y61.896 E1.38770
G1 X148.099 Y62.478 E1.41909
G1 X147.840 Y62.961 E1.44643
G1 X147.485 Y63.479 E1.47776
G1 X146.853 Y64.153 E1.52386
G1 X146.348 Y64.543 E1.55569
G1 X145.898 Y64.819 E1.58203
G1 X145.426 Y65.053 E1.60831
G1 X144.904 Y65.243 E1.63603
G1 X144.378 Y65.373 E1.66306
G1 X143.835 Y65.451 E1.69043
G1 X143.194 Y65.473 E1.72243
G1 X142.176 Y65.344 E1.77362
G1 X141.233 Y65.012 E1.82350
G1 X140.681 Y64.721 E1.85463
G1 X140.230 Y64.411 E1.88193
G1 X139.816 Y64.069 E1.90872
G1 X139.360 Y63.589 E1.94175
G1 X138.839 Y62.835 E1.98748
G1 X138.563 Y62.267 E2.01898
G1 X138.383 Y61.761 E2.04578
G1 X138.255 Y61.256 E2.07177
G1 X138.146 Y60.495 E2.11012
G1 X138.164 Y60.319 E2.11895
G1 X138.157 Y60.144 E2.12769
G1 X138.206 Y59.503 E2.15976
G1 X138.438 Y58.520 E2.21015
G1 X138.870 Y57.605 E2.26063
G1 X139.273 Y57.016 E2.29624
G1 X139.500 Y56.775 E2.31275
G1 X138.794 Y56.685 E2.34826
G1 X137.854 Y56.354 E2.39798
G1 X137.314 Y56.070 E2.42842
G1 X136.858 Y55.763 E2.45585
G1 X136.435 Y55.411 E2.48330
G1 X135.987 Y54.944 E2.51559
G1 X135.467 Y54.191 E2.56124
G1 X135.193 Y53.643 E2.59181
G1 X134.922 Y52.894 E2.63155
G1 X134.906 Y52.729 E2.63982
G1 X134.872 Y52.597 E2.64662
G1 X134.795 Y52.048 E2.67427
G1 X134.774 Y51.494 E2.70193
G1 X134.824 Y50.842 E2.73456
G1 X135.056 Y49.861 E2.78485
G0 F9000 X131.820 Y47.143
G1 F1800 X130.935 Y48.350 E2.85952
G1 X130.756 Y48.589 E2.87442
G1 X129.528 Y49.774 E2.95956
G1 X128.093 Y50.765 E3.04656
G1 X126.511 Y51.505 E3.13370
G1 X125.123 Y51.892 E3.20558
G1 X124.818 Y51.981 E3.22144
G1 X123.901 Y52.074 E3.26742
G1 X86.397 Y140.430 E8.05619
G1 X86.134 Y140.321 E8.07039
G1 X71.807 Y174.033 E9.89787
G1 X67.320 Y173.783 E10.12208
G1 X66.325 Y170.460 E10.29513
G1 X57.133 Y139.644 E11.89949
G1 X56.417 Y137.248 E12.02425
G1 X103.070 Y42.531 E17.29182
G1 X102.605 Y41.875 E17.33193
G1 X101.852 Y40.331 E17.41763
G1 X101.435 Y38.937 E17.49023
G1 X101.352 Y38.663 E17.50451
G1 X101.175 Y37.227 E17.57669
G1 X101.140 Y36.946 E17.59082
G1 X101.199 Y35.511 E17.66247
G1 X101.211 Y35.224 E17.67681
G1 X101.554 Y33.572 E17.76098
G1 X102.166 Y31.970 E17.84654
G1 X103.035 Y30.486 E17.93234
G1 X104.134 Y29.163 E18.01814
G1 X105.204 Y28.238 E18.08871
G1 X105.438 Y28.031 E18.10429
G1 X106.903 Y27.139 E18.18987
G1 X108.495 Y26.492 E18.27560
G1 X110.171 Y26.116 E18.36129
G1 X111.561 Y26.035 E18.43076
G1 X111.875 Y26.008 E18.44648
G1 X113.368 Y26.172 E18.52142
G1 X113.653 Y26.207 E18.53574
G1 X115.044 Y26.596 E18.60780
G1 X115.319 Y26.680 E18.62215
G1 X116.554 Y27.257 E18.69016
G1 X116.830 Y27.382 E18.70527
G1 X117.593 Y27.905 E18.75142
G1 X120.064 Y22.604 E19.04321
G1 X125.638 Y25.199 E19.34996
G1 X128.580 Y26.587 E19.51225
G1 X126.186 Y31.720 E19.79482
G1 X127.468 Y32.217 E19.86342
G1 X128.972 Y33.113 E19.95076
G1 X130.303 Y34.245 E20.03793
G1 X131.430 Y35.581 E20.12513
G1 X132.319 Y37.086 E20.21234
G1 X132.947 Y38.717 E20.29953
G1 X133.294 Y40.432 E20.38683
G1 X133.343 Y41.886 E20.45941
G1 X133.356 Y42.194 E20.47479
G1 X133.121 Y43.915 E20.56145
G1 X132.607 Y45.582 E20.64848
G1 X131.820 Y47.143 E20.73569
G1 F2400 E16.73569
G0 F9000 X128.569 Y45.151
;TYPE:WALL-INNER
G1 F2400 E20.73569
G1 F1800 X127.898 Y46.066 E20.79230
G1 X127.112 Y46.825 E20.84681
G1 X126.191 Y47.460 E20.90263
G1 X125.190 Y47.929 E20.95778
G1 X124.089 Y48.235 E21.01479
G1 X122.986 Y48.348 E21.07010
G1 X121.848 Y48.274 E21.12700
G1 X121.400 Y48.238 E21.14942
G1 X84.374 Y135.472 E25.87734
G1 X84.111 Y135.363 E25.89155
G1 X69.840 Y168.946 E27.71201
G1 X60.485 Y137.588 E29.34460
G1 X107.605 Y41.926 E34.66476
G1 X106.518 Y40.823 E34.74202
G1 X105.884 Y39.931 E34.79662
G1 X105.405 Y38.948 E34.85117
G1 X105.083 Y37.873 E34.90716
G1 X104.949 Y36.787 E34.96175
G1 X104.994 Y35.693 E35.01638
G1 X105.212 Y34.643 E35.06988
G1 X105.602 Y33.623 E35.12436
G1 X106.157 Y32.674 E35.17921
G1 X106.857 Y31.832 E35.23384
G1 X107.703 Y31.101 E35.28962
G1 X108.619 Y30.543 E35.34313
G1 X109.638 Y30.129 E35.39800
G1 X110.698 Y29.891 E35.45220
G1 X111.828 Y29.825 E35.50867
G1 X112.899 Y29.943 E35.56243
G1 X113.957 Y30.238 E35.61723
G1 X114.955 Y30.704 E35.67218
G1 X115.839 Y31.309 E35.72562
G1 X116.647 Y32.080 E35.78134
G1 X117.323 Y32.985 E35.83770
G1 X117.431 Y33.121 E35.84636
G1 X119.009 Y33.860 E35.93329
G1 X121.904 Y27.652 E36.27503
G1 X123.535 Y28.412 E36.36480
G1 X120.655 Y34.590 E36.70487
G1 X121.071 Y35.162 E36.74016
G1 X122.582 Y34.973 E36.81613
G1 X123.694 Y35.018 E36.87165
G1 X124.760 Y35.242 E36.92600
G1 X125.793 Y35.643 E36.98128
G1 X126.755 Y36.216 E37.03714
G1 X127.600 Y36.935 E37.09250
G1 X128.320 Y37.788 E37.14819
G1 X128.886 Y38.747 E37.20374
G1 X129.286 Y39.786 E37.25929
G1 X129.507 Y40.874 E37.31468
G1 X129.545 Y42.019 E37.37183
G1 X129.399 Y43.091 E37.42581
G1 X129.071 Y44.155 E37.48135
G1 X128.569 Y45.151 E37.53700
G0 F9000 X125.465 Y42.872
G1 F1800 X125.691 Y42.157 E37.57441
G1 X125.722 Y41.449 E37.60977
G1 X125.714 Y41.358 E37.61433
G1 X125.561 Y40.675 E37.64924
G1 X125.216 Y40.012 E37.68653
G1 X124.709 Y39.459 E37.72396
G1 X124.077 Y39.056 E37.76136
G1 X123.362 Y38.830 E37.79877
G1 X122.648 Y38.800 E37.83442
G1 X122.559 Y38.809 E37.83888
G1 X121.881 Y38.961 E37.87355
G1 X121.216 Y39.306 E37.91093
G1 X120.663 Y39.813 E37.94835
G1 X120.261 Y40.445 E37.98572
G1 X120.022 Y41.202 E38.02533
G1 X120.031 Y41.293 E38.02989
G1 X120.002 Y41.908 E38.06061
G1 X120.164 Y42.641 E38.09806
G1 X120.510 Y43.306 E38.13546
G1 X121.017 Y43.859 E38.17289
G1 X121.649 Y44.261 E38.21026
G1 X122.401 Y44.499 E38.24961
G1 X122.496 Y44.491 E38.25436
G1 X123.112 Y44.519 E38.28513
G1 X123.845 Y44.357 E38.32258
G1 X124.510 Y44.011 E38.35998
G1 X125.063 Y43.504 E38.39741
G1 X125.465 Y42.872 E38.43478
G0 F9000 X123.844 Y44.354
G0 X122.402 Y44.494
G0 X121.019 Y43.857
G0 X120.004 Y41.908
G0 X114.245 Y37.709
G1 F1800 X114.463 Y37.039 E38.46993
G1 X114.504 Y36.428 E38.50048
G1 X114.512 Y36.336 E38.50509
G1 X114.398 Y35.719 E38.53639
G1 X114.383 Y35.636 E38.54060
G1 X114.090 Y34.994 E38.57581
G1 X113.703 Y34.509 E38.60676
G1 X113.535 Y34.293 E38.62041
G1 X113.410 Y34.285 E38.62666
G1 X113.019 Y33.999 E38.65083
G1 X112.437 Y33.768 E38.68207
G1 X112.364 Y33.735 E38.68607
G1 X111.739 Y33.657 E38.71749
G1 X111.639 Y33.640 E38.72255
G1 X110.982 Y33.726 E38.75561
G1 X110.894 Y33.741 E38.76006
G1 X110.299 Y33.982 E38.79209
G1 X110.218 Y34.018 E38.79651
G1 X109.719 Y34.389 E38.82753
G1 X109.649 Y34.439 E38.83183
G1 X109.256 Y34.929 E38.86316
G1 X109.193 Y34.999 E38.86786
G1 X108.926 Y35.595 E38.90044
G1 X108.888 Y35.677 E38.90495
G1 X108.781 Y36.310 E38.93698
G1 X108.767 Y36.397 E38.94138
G1 X108.821 Y37.032 E38.97317
G1 X108.829 Y37.121 E38.97763
G1 X109.067 Y37.796 E39.01334
G1 X109.432 Y38.341 E39.04606
G1 X109.484 Y38.415 E39.05058
G1 X109.958 Y38.832 E39.08207
G1 X110.026 Y38.893 E39.08663
G1 X110.666 Y39.215 E39.12237
G1 X111.292 Y39.353 E39.15435
G1 X111.786 Y39.477 E39.17976
G1 X111.844 Y39.345 E39.18696
G1 X112.085 Y39.330 E39.19900
G1 X112.735 Y39.151 E39.23264
G1 X113.349 Y38.804 E39.26783
G1 X113.792 Y38.382 E39.29835
G1 X113.865 Y38.317 E39.30323
G1 X114.245 Y37.709 E39.33900
G0 F9000 X113.531 Y38.079
;TYPE:WALL-OUTER
G1 F1800 X113.556 Y38.056 E39.34069
G1 X113.880 Y37.539 E39.37113
G1 X114.067 Y36.962 E39.40139
G1 X114.106 Y36.392 E39.42990
G1 X114.109 Y36.356 E39.43170
G1 X113.998 Y35.757 E39.46209
G1 X113.747 Y35.205 E39.49234
G1 X113.390 Y34.758 E39.52088
G1 X113.330 Y34.680 E39.52579
G1 X113.267 Y34.676 E39.52894
G1 X112.860 Y34.376 E39.55417
G1 X112.828 Y34.354 E39.55611
G1 X112.284 Y34.138 E39.58531
G1 X112.254 Y34.124 E39.58696
G1 X111.673 Y34.052 E39.61617
G1 X111.632 Y34.045 E39.61824
G1 X111.041 Y34.122 E39.64798
G1 X111.003 Y34.128 E39.64990
G1 X110.457 Y34.349 E39.67928
G1 X110.423 Y34.365 E39.68116
G1 X109.958 Y34.710 E39.71004
G1 X109.925 Y34.734 E39.71208
G1 X109.557 Y35.193 E39.74143
G1 X109.533 Y35.219 E39.74320
G1 X109.274 Y35.795 E39.77470
G1 X109.170 Y36.413 E39.80597
G1 X109.223 Y37.037 E39.83721
G1 X109.428 Y37.615 E39.86781
G1 X109.762 Y38.115 E39.89781
G1 X109.784 Y38.146 E39.89971
G1 X110.224 Y38.533 E39.92894
G1 X110.253 Y38.559 E39.93088
G1 X110.801 Y38.835 E39.96149
G1 X111.381 Y38.963 E39.99113
G1 X111.557 Y39.007 E40.00018
G1 X111.578 Y38.959 E40.00279
G1 X112.013 Y38.935 E40.02453
G1 X112.581 Y38.778 E40.05393
G1 X113.109 Y38.480 E40.08418
G1 X113.531 Y38.079 E40.11322
G0 F9000 X113.729 Y38.303
G0 X117.452 Y32.985
G0 X117.686 Y32.799
G1 F1800 X118.816 Y33.328 E40.17547
G1 X121.710 Y27.120 E40.51719
G1 X124.067 Y28.218 E40.64691
G1 X121.117 Y34.545 E40.99519
G1 X121.256 Y34.736 E41.00698
G1 X122.557 Y34.573 E41.07239
G1 X123.740 Y34.619 E41.13145
G1 X124.877 Y34.859 E41.18943
G1 X125.970 Y35.283 E41.24792
G1 X126.987 Y35.888 E41.30696
G1 X127.885 Y36.652 E41.36578
G1 X128.648 Y37.556 E41.42480
G1 X129.246 Y38.569 E41.48348
G1 X129.672 Y39.674 E41.54257
G1 X129.906 Y40.829 E41.60136
G1 X129.946 Y42.027 E41.66116
G1 X129.790 Y43.178 E41.71911
G1 X129.443 Y44.304 E41.77790
G1 X128.909 Y45.365 E41.83715
G1 X128.205 Y46.324 E41.89651
G1 X127.369 Y47.133 E41.95455
G1 X126.392 Y47.807 E42.01376
G1 X125.329 Y48.305 E42.07233
G1 X124.172 Y48.628 E42.13226
G1 X122.999 Y48.748 E42.19108
G1 X121.822 Y48.673 E42.24992
G1 X121.656 Y48.660 E42.25823
G1 X84.587 Y135.994 E46.99158
G1 X84.324 Y135.885 E47.00579
G1 X69.774 Y170.124 E48.86182
G1 X60.057 Y137.552 E50.55761
G1 X107.120 Y42.004 E55.87141
G1 X106.213 Y41.084 E55.93586
G1 X105.540 Y40.136 E55.99387
G1 X105.030 Y39.090 E56.05192
G1 X104.689 Y37.951 E56.11124
G1 X104.548 Y36.808 E56.16870
G1 X104.596 Y35.644 E56.22682
G1 X104.828 Y34.529 E56.28364
G1 X105.241 Y33.448 E56.34137
G1 X105.829 Y32.444 E56.39942
G1 X106.572 Y31.550 E56.45741
G1 X107.462 Y30.780 E56.51613
G1 X108.440 Y30.184 E56.57327
G1 X109.512 Y29.748 E56.63100
G1 X110.643 Y29.494 E56.68883
G1 X111.824 Y29.425 E56.74785
G1 X112.974 Y29.549 E56.80556
G1 X114.093 Y29.861 E56.86352
G1 X115.146 Y30.352 E56.92148
G1 X116.090 Y30.996 E56.97849
G1 X116.943 Y31.810 E57.03732
G1 X117.640 Y32.741 E57.09534
G1 X117.686 Y32.799 E57.09903
G0 F9000 X117.452 Y32.985
G0 X121.309 Y39.372
G0 X121.447 Y39.637
G1 F1800 X120.972 Y40.072 E57.13117
G1 X120.626 Y40.616 E57.16333
G1 X120.428 Y41.244 E57.19618
G1 X120.431 Y41.279 E57.19794
G1 X120.404 Y41.873 E57.22760
G1 X120.543 Y42.503 E57.25979
G1 X120.841 Y43.075 E57.29197
G1 X121.276 Y43.550 E57.32410
G1 X121.820 Y43.896 E57.35626
G1 X122.446 Y44.094 E57.38902
G1 X122.483 Y44.090 E57.39088
G1 X123.077 Y44.117 E57.42054
G1 X123.707 Y43.978 E57.45273
G1 X124.279 Y43.680 E57.48491
G1 X124.754 Y43.245 E57.51704
G1 X125.100 Y42.701 E57.54921
G1 X125.294 Y42.087 E57.58133
G1 X125.321 Y41.457 E57.61279
G1 X125.318 Y41.419 E57.61469
G1 X125.182 Y40.814 E57.64563
G1 X124.885 Y40.243 E57.67774
G1 X124.450 Y39.768 E57.70987
G1 X123.906 Y39.421 E57.74207
G1 X123.292 Y39.227 E57.77419
G1 X122.659 Y39.201 E57.80580
G1 X122.623 Y39.204 E57.80760
G1 X122.019 Y39.340 E57.83849
G1 X121.447 Y39.637 E57.87064
G0 F9000 X121.027 Y39.286
;TYPE:SKIN
G1 F1800 X111.714 Y29.972 E58.52776
G0 F9000 X111.179 Y30.003
G1 F1800 X120.732 Y39.556 E59.20178
G0 F9000 X120.468 Y39.858
G1 F1800 X110.654 Y30.044 E59.89421
G0 F9000 X110.192 Y30.148
G1 F1800 X120.248 Y40.203 E60.60368
G0 F9000 X120.068 Y40.589
G1 F1800 X109.730 Y30.252 E61.33304
G0 F9000 X109.321 Y30.408
G1 F1800 X112.591 Y33.678 E61.56376
G0 F9000 X111.880 Y33.533
G1 F1800 X108.919 Y30.571 E61.77271
G0 F9000 X108.538 Y30.756
G1 F1800 X111.321 Y33.539 E61.96906
G0 F9000 X110.830 Y33.614
G1 F1800 X108.186 Y30.970 E62.15561
G0 F9000 X107.834 Y31.184
G1 F1800 X110.428 Y33.777 E62.33860
G0 F9000 X110.050 Y33.965
G1 F1800 X107.524 Y31.440 E62.51679
G0 F9000 X107.221 Y31.702
G1 F1800 X109.726 Y34.207 E62.69353
G0 F9000 X109.435 Y34.482
G1 F1800 X106.923 Y31.969 E62.87080
G0 F9000 X106.666 Y32.278
G1 F1800 X109.183 Y34.796 E63.04842
G0 F9000 X108.972 Y35.150
G1 F1800 X106.409 Y32.587 E63.22925
G0 F9000 X106.174 Y32.918
G1 F1800 X108.796 Y35.540 E63.41425
G0 F9000 X108.691 Y36.000
G1 F1800 X105.966 Y33.275 E63.60651
G0 F9000 X105.757 Y33.632
G1 F1800 X108.637 Y36.512 E63.80971
G0 F9000 X108.688 Y37.129
G1 F1800 X105.593 Y34.034 E64.02808
G0 F9000 X105.436 Y34.443
G1 F1800 X109.117 Y38.123 E64.28776
G0 F9000 X110.060 Y39.066
G1 F1800 X120.646 Y49.653 E65.03470
G0 F9000 X120.477 Y50.049
G1 F1800 X105.305 Y34.877 E66.10516
G0 F9000 X105.207 Y35.345
G1 F1800 X120.309 Y50.447 E67.17069
G0 F9000 X120.140 Y50.843
G1 F1800 X105.126 Y35.830 E68.22997
G0 F9000 X105.105 Y36.374
G1 F1800 X119.971 Y51.241 E69.27889
G0 F9000 X119.803 Y51.638
G1 F1800 X105.107 Y36.942 E70.31577
G0 F9000 X105.187 Y37.587
G1 F1800 X119.634 Y52.035 E71.33512
G0 F9000 X119.466 Y52.432
G1 F1800 X105.365 Y38.332 E72.32998
G0 F9000 X105.696 Y39.228
G1 F1800 X119.298 Y52.830 E73.28968
G0 F9000 X119.129 Y53.226
G1 F1800 X106.599 Y40.696 E74.17374
G0 F9000 X107.595 Y42.258
G1 F1800 X118.960 Y53.624 E74.97564
G0 F9000 X118.791 Y54.020
G1 F1800 X107.408 Y42.637 E75.77877
G0 F9000 X107.222 Y43.016
G1 F1800 X118.623 Y54.418 E76.58320
G0 F9000 X118.455 Y54.815
G1 F1800 X107.035 Y43.395 E77.38895
G0 F9000 X106.848 Y43.774
G1 F1800 X118.286 Y55.212 E78.19596
G0 F9000 X118.117 Y55.609
G1 F1800 X106.662 Y44.153 E79.00421
G0 F9000 X106.475 Y44.532
G1 F1800 X117.949 Y56.007 E79.81380
G0 F9000 X117.780 Y56.403
G1 F1800 X106.288 Y44.911 E80.62462
G0 F9000 X106.102 Y45.290
G1 F1800 X117.612 Y56.801 E81.43675
G0 F9000 X117.443 Y57.197
G1 F1800 X105.915 Y45.669 E82.25011
G0 F9000 X105.728 Y46.048
G1 F1800 X117.275 Y57.595 E83.06481
G0 F9000 X117.106 Y57.992
G1 F1800 X105.542 Y46.427 E83.88075
G0 F9000 X105.355 Y46.806
G1 F1800 X116.937 Y58.389 E84.69796
G0 F9000 X116.769 Y58.786
G1 F1800 X105.168 Y47.185 E85.51647
G0 F9000 X104.982 Y47.564
G1 F1800 X116.601 Y59.184 E86.33629
G0 F9000 X116.432 Y59.580
G1 F1800 X104.795 Y47.943 E87.15734
G0 F9000 X104.608 Y48.322
G1 F1800 X116.263 Y59.978 E87.97970
